static/icons/s9.svg

<svg width="92" height="69" viewBox="0 0 92 69" fill="none" xmlns="http://www.w3.org/2000/svg">
<path d="M18.914 66.934C23.7487 66.934 27.9953 65.5293 31.654 62.72C35.3127 59.8453 37.142 55.5007 37.142 49.686C37.142 47.0727 36.4887 44.8513 35.182 43.022C33.9407 41.1273 32.2747 39.69 30.184 38.71C28.0933 37.6647 25.8067 36.7827 23.324 36.064C20.8413 35.28 18.3587 34.4633 15.876 33.614C13.3933 32.7647 11.1067 31.752 9.016 30.576C6.92533 29.4 5.22667 27.734 3.92 25.578C2.67867 23.422 2.058 20.8413 2.058 17.836C2.058 12.6093 3.85467 8.33 7.448 4.998C11.0413 1.666 15.8433 0 21.854 0C27.8647 0 33.614 0.685999 39.102 2.058L40.18 14.308L38.318 15.092L37.338 7.35C32.5033 3.75666 27.9627 1.96 23.716 1.96C19.4693 1.96 15.9087 3.26666 13.034 5.88C10.1593 8.428 8.722 12.2827 8.722 17.444C8.722 20.4493 9.93067 22.834 12.348 24.598C14.7653 26.362 17.6727 27.734 21.07 28.714C24.5327 29.694 27.9627 30.8047 31.36 32.046C34.8227 33.2873 37.7627 35.378 40.18 38.318C42.5973 41.258 43.806 45.08 43.806 49.784C43.806 56.1213 41.552 60.8907 37.044 64.092C32.536 67.2933 26.5907 68.894 19.208 68.894C11.8253 68.894 5.42267 66.9013 0 62.916L0.098 52.528L1.96 52.038L2.156 57.624C3.92 60.1067 6.33733 62.2953 9.408 64.19C12.4787 66.0193 15.6473 66.934 18.914 66.934Z" fill="white"/>
<path d="M57.6898 68.887H64.6968L83.1698 44.408C86.0212 40.6467 88.1748 37.037 89.6308 33.579C91.0868 30.0603 91.8148 26.299 91.8148 22.295C91.8148 17.927 90.8745 14.0747 88.9938 10.738C87.1738 7.40133 84.6258 4.79267 81.3498 2.912C78.1345 0.970667 74.4338 0 70.2478 0C66.1832 0 62.5128 0.940333 59.2368 2.821C55.9608 4.641 53.3522 7.15867 51.4108 10.374C49.5302 13.5893 48.5898 17.29 48.5898 21.476C48.5898 25.7227 49.5302 29.4537 51.4108 32.669C53.2915 35.8843 55.8092 38.402 58.9638 40.222C62.1185 42.042 65.6372 42.952 69.5198 42.952C71.1578 42.952 72.7655 42.77 74.3428 42.406C75.9808 42.042 77.5278 41.4353 78.9838 40.586L57.6898 68.887ZM70.2478 37.583C67.2145 37.583 64.5148 36.8853 62.1488 35.49C59.7828 34.0947 57.9325 32.1837 56.5978 29.757C55.2632 27.2697 54.5958 24.479 54.5958 21.385C54.5958 18.2303 55.2632 15.4397 56.5978 13.013C57.9932 10.5863 59.8738 8.67533 62.2398 7.28C64.6058 5.88467 67.2752 5.187 70.2478 5.187C73.2205 5.187 75.8595 5.88467 78.1648 7.28C80.5308 8.67533 82.4115 10.5863 83.8068 13.013C85.2022 15.4397 85.8998 18.2303 85.8998 21.385C85.8998 24.479 85.2022 27.2697 83.8068 29.757C82.4722 32.1837 80.6218 34.0947 78.2558 35.49C75.9505 36.8853 73.2812 37.583 70.2478 37.583Z" fill="#ED4C5C"/>
</svg>

<svg width="92" height="69" fill="none" xmlns="http://www.w3.org/2000/svg"><path d="M18.914 66.934c4.835 0 9.081-1.405 12.74-4.214 3.659-2.875 5.488-7.22 5.488-13.034 0-2.613-.653-4.835-1.96-6.664-1.241-1.895-2.907-3.332-4.998-4.312-2.09-1.045-4.377-1.927-6.86-2.646-2.483-.784-4.965-1.6-7.448-2.45-2.483-.85-4.77-1.862-6.86-3.038-2.09-1.176-3.79-2.842-5.096-4.998-1.241-2.156-1.862-4.737-1.862-7.742 0-5.227 1.797-9.506 5.39-12.838C11.041 1.666 15.843 0 21.854 0c6.01 0 11.76.686 17.248 2.058l1.078 12.25-1.862.784-.98-7.742c-4.835-3.593-9.375-5.39-13.622-5.39s-7.807 1.307-10.682 3.92c-2.875 2.548-4.312 6.403-4.312 11.564 0 3.005 1.209 5.39 3.626 7.154 2.417 1.764 5.325 3.136 8.722 4.116 3.463.98 6.893 2.09 10.29 3.332 3.463 1.241 6.403 3.332 8.82 6.272 2.417 2.94 3.626 6.762 3.626 11.466 0 6.337-2.254 11.107-6.762 14.308-4.508 3.201-10.453 4.802-17.836 4.802-7.383 0-13.785-1.993-19.208-5.978l.098-10.388 1.862-.49.196 5.586c1.764 2.483 4.181 4.671 7.252 6.566 3.07 1.83 6.24 2.744 9.506 2.744Z" fill="#fff"/><path d="M57.69 68.887h7.007L83.17 44.408c2.851-3.761 5.005-7.371 6.46-10.829 1.457-3.519 2.185-7.28 2.185-11.284 0-4.368-.94-8.22-2.821-11.557-1.82-3.337-4.368-5.945-7.644-7.826C78.135.971 74.434 0 70.248 0c-4.065 0-7.735.94-11.011 2.821-3.276 1.82-5.885 4.338-7.826 7.553-1.88 3.215-2.821 6.916-2.821 11.102 0 4.247.94 7.978 2.82 11.193 1.882 3.215 4.4 5.733 7.554 7.553 3.154 1.82 6.673 2.73 10.556 2.73 1.638 0 3.246-.182 4.823-.546a16.081 16.081 0 0 0 4.64-1.82L57.69 68.887Zm12.558-31.304c-3.034 0-5.733-.698-8.1-2.093-2.365-1.395-4.216-3.306-5.55-5.733-1.335-2.487-2.002-5.278-2.002-8.372 0-3.155.667-5.945 2.002-8.372 1.395-2.427 3.276-4.338 5.642-5.733 2.366-1.395 5.035-2.093 8.008-2.093 2.972 0 5.611.698 7.917 2.093 2.366 1.395 4.246 3.306 5.642 5.733 1.395 2.427 2.093 5.217 2.093 8.372 0 3.094-.698 5.885-2.093 8.372-1.335 2.427-3.185 4.338-5.551 5.733-2.305 1.395-4.975 2.093-8.008 2.093Z" fill="#ED4C5C"/></svg>
